X: 2779
T: Bannow Bay, The
R: hornpipe
M: 4/4
K: Gmajor
|:dc|B/d/B A/B/A G/A/G F/G/F|E2 C2 C3 E|D/E/D B,D D/E/D B,E|DFAB cedc|
B/d/B A/B/A G/A/G F/G/F|E2 C2 C3 E|D/E/D B,E D/E/D GB|A2 EF G2:|
|:Bc|d/e/d B/d/B GBdg|e2 c2 c3 g|f/a/f e/f/e defg|a/b/a gf g2 Bc|
d/e/d B/d/B GBdg|e2 c2 ce dc|B/d/B GB A/B/A FA|G2FA G2:|

